X:1
T:Title
%%score 1 { 2 | 3 }
L:1/8
Q:1/4=108
M:4/4
K:G
V:1 treble nm="Grand Piano, Soprano"
V:2 bass nm="Choir Pad, Mato Grosso, 78.88.88.78"
V:3 bass 
V:1
 [DB]2 [DA]2 [DG]3 [DF] | [CE]2 [CG]2 [B,D]3 [B,D] | [DG][DA][GB][Gc] [Gd]2 [GB]2 | [FA]6 [Dc]2 | %4
w: By~Charles~Hutchinson~Gabriel,~1905 * * *||||
 [DB]2 [DA]2 [DG]3 [DF] | [CE]2 [CG]2 [B,D]3 [B,D] | [DG][DA][GB][Gc] [GB]2 [DA]2 | [DG]6 z [DG] | %8
w: ||||
 [FA]2 [FA]2 [FA]3 [GB] | [Ac]2 [Ac]2 [Ac]3 [FA] | [GB]2 [GB]2 [GB]3 [Gc] | [Gd]2 [Gd]2 [Gd]4 | %12
w: ||||
 [Ge]2 [Ge]2 [Ge]3 [EG] | [Dd]2 [Fd]2 [Gd]3 [GB] | [Gd][Ge][Gd][Gc] [GB]2 [DA]2 | [DG]8 |] %16
w: ||||
V:2
 G,2 C2 B,3 G, | G,2 G,2 G,3 G, | B,[K:treble]CDA, B,2 D2 | D6[K:bass] A,2 | G,2 C2 B,3 G, | %5
 G,2 G,2 G,3 G, | B,[K:treble]CDE D2 C2 | B,6 z B, | D2 D2 D3 D | D2 D2 D3 D | %10
 D2 D2 D3[K:bass] A, | B,2 B,2 B,4 | C2[K:treble] C2 C3 C | G,2 C2 B,3 D | B,CB,E D2 C2 | B,8 |] %16
V:3
 z2 G,2 G,3 C, | C,2 E,2 z4 | G,G,G,G, G,2 G,2 | D,6 D,2 | z2 G,2 G,3 B,, | C,2 E,2 z4 | %6
 G,G,G,C, D,2 D,2 | G,,6 z G, | D,2 D,2 D,3 D, | D,2 D,2 D,3 D, | G,2 G,2 G,3 G, | G,2 G,2 G,4 | %12
 C,2 C,2 C,3 C, | B,,2 A,,2 G,,3 G, | G,G,G,C, D,2 D,2 | G,,8 |] %16

